data/icons/16/io.elementary.maps.svg

<?xml version="1.0" encoding="UTF-8" standalone="no"?>
<svg
   version="1.1"
   width="16"
   height="16"
   id="svg4372"
   xmlns:xlink="http://www.w3.org/1999/xlink"
   xmlns="http://www.w3.org/2000/svg"
   xmlns:svg="http://www.w3.org/2000/svg"
   xmlns:rdf="http://www.w3.org/1999/02/22-rdf-syntax-ns#"
   xmlns:cc="http://creativecommons.org/ns#"
   xmlns:dc="http://purl.org/dc/elements/1.1/">
  <defs
     id="defs4374">
    <linearGradient
       x1="23.99999"
       y1="7.222682"
       x2="23.99999"
       y2="40.912014"
       id="linearGradient3304"
       xlink:href="#linearGradient3924-4-8"
       gradientUnits="userSpaceOnUse"
       gradientTransform="matrix(0.2972973,0,0,0.2972973,0.86486906,0.8648672)" />
    <linearGradient
       id="linearGradient3924-4-8">
      <stop
         id="stop3926-0-4"
         style="stop-color:#ffffff;stop-opacity:1"
         offset="0" />
      <stop
         id="stop3928-6-8"
         style="stop-color:#ffffff;stop-opacity:0.23529412"
         offset="0.06316455" />
      <stop
         id="stop3930-2-1"
         style="stop-color:#ffffff;stop-opacity:0.15686275"
         offset="0.95056331" />
      <stop
         id="stop3932-9-0"
         style="stop-color:#ffffff;stop-opacity:0.39215687"
         offset="1" />
    </linearGradient>
    <linearGradient
       xlink:href="#linearGradient51"
       id="linearGradient867"
       x1="7.9050331"
       y1="1.5559154"
       x2="7.9050331"
       y2="14.459918"
       gradientUnits="userSpaceOnUse"
       gradientTransform="translate(-1.4305115e-6)" />
    <linearGradient
       id="linearGradient51">
      <stop
         id="stop50"
         style="stop-color:#efdfc4;stop-opacity:1"
         offset="0" />
      <stop
         id="stop51"
         style="stop-color:#e7c591;stop-opacity:1"
         offset="1" />
    </linearGradient>
    <radialGradient
       cx="9.6923532"
       cy="41.271797"
       fx="9.6923532"
       fy="41.271797"
       r="29.069305"
       gradientTransform="matrix(1.2896764,0,0,0.77538829,33.5,12.867224)"
       id="radialGradient-9-0-5-6"
       gradientUnits="userSpaceOnUse">
      <stop
         stop-color="#000000"
         offset="0%"
         id="stop20-9-0-0" />
      <stop
         stop-color="#000000"
         stop-opacity="0"
         offset="100%"
         id="stop21-3-3-4" />
    </radialGradient>
    <filter
       x="-0.20869565"
       y="-0.48"
       width="1.4173913"
       height="1.96"
       filterUnits="objectBoundingBox"
       id="filter-10-6-6-8">
      <feGaussianBlur
         stdDeviation="2"
         in="SourceGraphic"
         id="feGaussianBlur21-0-1-8" />
    </filter>
    <linearGradient
       id="linearGradient72">
      <stop
         id="stop69"
         style="stop-color:#ffffff;stop-opacity:1"
         offset="0" />
      <stop
         id="stop70"
         style="stop-color:#ffffff;stop-opacity:0.23529412"
         offset="0.4065806" />
      <stop
         id="stop71"
         style="stop-color:#ffffff;stop-opacity:0.15686275"
         offset="0.72683871" />
      <stop
         id="stop72"
         style="stop-color:#ffffff;stop-opacity:0.39215687"
         offset="1" />
    </linearGradient>
    <linearGradient
       xlink:href="#linearGradient64"
       id="linearGradient65"
       x1="-7.6893487"
       y1="2.0664976"
       x2="-7.6893487"
       y2="14.457609"
       gradientUnits="userSpaceOnUse"
       gradientTransform="translate(14)" />
    <linearGradient
       id="linearGradient64">
      <stop
         style="stop-color:#9bdb4d;stop-opacity:1"
         offset="0"
         id="stop64" />
      <stop
         style="stop-color:#68b723;stop-opacity:1"
         offset="1"
         id="stop65" />
    </linearGradient>
    <linearGradient
       xlink:href="#linearGradient72"
       id="linearGradient69"
       gradientUnits="userSpaceOnUse"
       gradientTransform="matrix(0.33857494,0,0,0.33948513,-26.125797,-1.6203669)"
       x1="100.79244"
       y1="13.841264"
       x2="100.79244"
       y2="33.72438" />
    <linearGradient
       xlink:href="#linearGradient67-8"
       id="linearGradient68-7"
       x1="6.1624842"
       y1="2.7617924"
       x2="6.1624842"
       y2="16.02326"
       gradientUnits="userSpaceOnUse"
       gradientTransform="matrix(0.96882097,0,0,0.97365597,0.99761838,-1.1826286)" />
    <linearGradient
       id="linearGradient67-8">
      <stop
         style="stop-color:#ed5353;stop-opacity:1"
         offset="0"
         id="stop67-6" />
      <stop
         style="stop-color:#cf3137;stop-opacity:1;"
         offset="0.53065509"
         id="stop7" />
      <stop
         style="stop-color:#7a0000;stop-opacity:1"
         offset="1"
         id="stop68-8" />
    </linearGradient>
    <linearGradient
       xlink:href="#linearGradient7"
       id="linearGradient9"
       x1="8.0744915"
       y1="9.7803135"
       x2="8.0744915"
       y2="16.113527"
       gradientUnits="userSpaceOnUse"
       gradientTransform="matrix(0.96882097,0,0,0.97365597,0.99761838,-1.1826286)" />
    <linearGradient
       id="linearGradient7">
      <stop
         style="stop-color:#a10705;stop-opacity:0.5;"
         offset="0"
         id="stop8" />
      <stop
         style="stop-color:#7a0000;stop-opacity:1"
         offset="1"
         id="stop9" />
    </linearGradient>
    <linearGradient
       xlink:href="#linearGradient12"
       id="linearGradient13"
       x1="25.999889"
       y1="26"
       x2="37.999889"
       y2="26"
       gradientUnits="userSpaceOnUse"
       gradientTransform="matrix(0.25,0,0,0.25,-13.999972,1.5817925)" />
    <linearGradient
       id="linearGradient12">
      <stop
         style="stop-color:#a10705;stop-opacity:1;"
         offset="0"
         id="stop12" />
      <stop
         style="stop-color:#7a0000;stop-opacity:1"
         offset="1"
         id="stop13" />
    </linearGradient>
  </defs>
  <metadata
     id="metadata4377">
    <rdf:RDF>
      <cc:Work
         rdf:about="">
        <dc:format>image/svg+xml</dc:format>
        <dc:type
           rdf:resource="http://purl.org/dc/dcmitype/StillImage" />
      </cc:Work>
    </rdf:RDF>
  </metadata>
  <rect
     width="13.000003"
     height="13.000003"
     rx="2"
     ry="2"
     x="1.4999986"
     y="1.4999986"
     id="rect5505-21-2"
     style="color:#000000;display:inline;overflow:visible;visibility:visible;fill:url(#linearGradient867);fill-rule:nonzero;stroke:none;stroke-width:1;marker:none;enable-background:accumulate" />
  <path
     id="path63-1"
     style="baseline-shift:baseline;display:inline;overflow:visible;vector-effect:none;fill:#d48e15;stroke-width:1;stroke-linecap:round;stroke-linejoin:round;enable-background:accumulate;stop-color:#000000;font-variation-settings:normal;opacity:0.3;fill-opacity:1;stroke-miterlimit:4;stroke-dasharray:none;stroke-dashoffset:0;stroke-opacity:1;-inkscape-stroke:none;stop-opacity:1"
     d="M 6.3183594 1.5 C 6.2821299 1.6788159 6.2955583 1.8690007 6.3691406 2.0507812 L 7.4589844 4.7519531 L 1.5 6.8945312 L 1.5 8.9414062 L 8.1796875 6.5390625 L 9.4804688 9.7617188 L 12.078125 11.054688 L 14.5 10.400391 L 14.5 8.4082031 L 11.353516 9.2578125 L 9.9941406 5.8886719 L 14.5 4.2675781 L 14.5 3.5 C 14.5 3.0727097 14.36717 2.6777892 14.140625 2.3535156 C 14.125501 2.3580793 14.110616 2.3618732 14.095703 2.3671875 L 9.2714844 4.1015625 L 8.2226562 1.5 L 6.3183594 1.5 z " />
  <path
     id="path1"
     style="font-variation-settings:normal;vector-effect:none;fill:url(#linearGradient65);fill-opacity:1;stroke:none;stroke-width:1;stroke-linecap:butt;stroke-linejoin:miter;stroke-miterlimit:4;stroke-dasharray:none;stroke-dashoffset:0;stroke-opacity:0.5;-inkscape-stroke:none;marker:none;stop-color:#000000"
     d="m 11.052734,9.0507812 c -0.454388,0 -7.0631129,1.8409558 -9.552734,2.5390628 V 12.5 c 0,1.108 0.892,2 2,2 h 9 c 0.26211,0 0.511248,-0.04974 0.740234,-0.140625 -0.60759,-1.870694 -1.77938,-5.3085938 -2.1875,-5.3085938 z" />
  <path
     id="path63-7"
     style="baseline-shift:baseline;display:inline;overflow:visible;vector-effect:none;fill:#3a9104;stroke-width:1;stroke-linecap:round;stroke-linejoin:round;enable-background:accumulate;stop-color:#000000;font-variation-settings:normal;opacity:0.3;fill-opacity:1;stroke-miterlimit:4;stroke-dasharray:none;stroke-dashoffset:0;stroke-opacity:1;-inkscape-stroke:none;stop-opacity:1"
     d="M 9.3867188 9.7089844 L 1.5 11.835938 L 1.5 12.5 C 1.5 12.960202 1.6547387 13.383462 1.9140625 13.720703 L 5.6875 12.701172 L 6.2519531 14.5 L 8.2714844 14.5 L 7.5488281 12.199219 L 10.113281 11.507812 L 11.320312 14.5 L 12.5 14.5 C 12.794175 14.5 13.073147 14.437323 13.324219 14.324219 L 11.984375 11.001953 L 9.3867188 9.7089844 z " />
  <path
     id="path63"
     style="baseline-shift:baseline;display:inline;overflow:visible;vector-effect:none;fill:#fafafa;stroke-width:0.999998;stroke-linecap:round;stroke-linejoin:round;enable-background:accumulate;stop-color:#000000"
     d="M 13.191406 1.6210938 L 1.5 5.8242188 L 1.5 7.8710938 L 14.478516 3.2050781 C 14.371353 2.4718034 13.869047 1.8694694 13.193359 1.6210938 L 13.191406 1.6210938 z M 14.5 7.2871094 L 1.5 10.794922 L 1.5 12.5 C 1.5 12.595862 1.5066151 12.691013 1.5195312 12.783203 L 6.3476562 11.480469 L 7.296875 14.5 L 9.3144531 14.5 L 8.2089844 10.978516 L 14.5 9.28125 L 14.5 7.2871094 z " />
  <path
     id="path58"
     style="baseline-shift:baseline;display:inline;overflow:visible;vector-effect:none;fill:#ffe16b;stroke-width:0.999998;stroke-linecap:round;stroke-linejoin:round;enable-background:accumulate;stop-color:#000000"
     d="M 7.2265625 1.5 L 12.472656 14.5 L 12.5 14.5 C 13.2061 14.5 13.825939 14.137451 14.181641 13.587891 L 14.181641 13.585938 L 9.3027344 1.5 L 7.2265625 1.5 z " />
  <ellipse
     id="Shadow-6-7"
     fill="url(#radialGradient-9)"
     fill-rule="nonzero"
     opacity="0.580799"
     filter="url(#filter-10)"
     cx="46"
     cy="44.867226"
     rx="11.5"
     ry="5"
     style="opacity:0.3;fill:url(#radialGradient-9-0-5-6);stroke-width:4.23077;filter:url(#filter-10-6-6-8)"
     transform="matrix(0.23636364,0,0,0.23636364,-2.872727,0.4363636)" />
  <rect
     width="11"
     height="11"
     x="2.5"
     y="2.4999969"
     id="rect6741-0-3-5"
     style="opacity:0.4;fill:none;stroke:url(#linearGradient3304);stroke-width:1;stroke-linecap:round;stroke-linejoin:round;stroke-miterlimit:4;stroke-dasharray:none;stroke-dashoffset:0;stroke-opacity:1"
     rx="1"
     ry="1" />
  <rect
     width="13.000003"
     height="13.000003"
     rx="2"
     ry="2"
     x="1.5"
     y="1.499997"
     id="rect5505-21-2-8"
     style="color:#000000;display:inline;overflow:visible;visibility:visible;opacity:0.5;fill:none;stroke:#b6802e;stroke-width:1;stroke-linecap:butt;stroke-linejoin:round;stroke-miterlimit:4;stroke-dasharray:none;stroke-dashoffset:0;stroke-opacity:1;marker:none;enable-background:accumulate;font-variation-settings:normal;vector-effect:none;fill-opacity:1;-inkscape-stroke:none;stop-color:#000000;stop-opacity:1" />
  <path
     id="rect52-9"
     style="font-variation-settings:normal;opacity:1;vector-effect:none;fill:url(#linearGradient68-7);fill-opacity:1;stroke:url(#linearGradient9);stroke-width:0.999994;stroke-linecap:round;stroke-linejoin:round;stroke-miterlimit:4;stroke-dasharray:none;stroke-dashoffset:0;stroke-opacity:1;-inkscape-stroke:none;stop-color:#000000;stop-opacity:1"
     d="m 7.9997406,1.4913109 c -2.4802235,1.214e-4 -4.4908103,1.9414572 -4.4909358,4.3362535 -2.5e-5,1.2170673 0.5296436,2.3781257 1.4596575,3.1996383 l 2.2502309,2.1730963 c 0.4313497,0.416564 1.1307748,0.416593 1.5621617,6.5e-5 L 11.031537,9.0272027 C 11.961551,8.2056904 12.49122,7.044632 12.491195,5.8275644 12.49107,3.4325724 10.480167,1.4911556 7.9997406,1.4913109 Z" />
  <path
     id="rect52-9-3"
     style="font-variation-settings:normal;opacity:0.3;vector-effect:none;fill:none;fill-opacity:1;stroke:url(#linearGradient69);stroke-width:1;stroke-linecap:round;stroke-linejoin:round;stroke-miterlimit:4;stroke-dasharray:none;stroke-dashoffset:0;stroke-opacity:1;-inkscape-stroke:none;stop-color:#000000"
     d="M 7.8141462,2.4790935 C 6.4072271,2.5319552 5.1070053,3.5046993 4.6923425,4.802151 4.2678022,6.0340259 4.6776591,7.4768412 5.6880652,8.3322084 6.4459025,9.056524 7.1892621,9.796534 7.9561407,10.511047 8.1155531,10.544245 8.2015309,10.330424 8.3208813,10.254736 9.0897077,9.505185 9.8741581,8.7694841 10.634174,8.0122181 11.571358,6.98649 11.742007,5.3929083 11.039689,4.2046112 10.416108,3.0958118 9.1196872,2.3989582 7.8141462,2.4790935 Z" />
  <circle
     style="font-variation-settings:normal;vector-effect:none;fill:url(#linearGradient13);fill-opacity:1;stroke:none;stroke-width:1;stroke-linecap:round;stroke-linejoin:round;stroke-miterlimit:4;stroke-dasharray:none;stroke-dashoffset:0;stroke-opacity:1;-inkscape-stroke:none;marker:none"
     id="path73-3"
     cx="-6"
     cy="8.0817928"
     r="1.5"
     transform="rotate(-90)" />
  <circle
     style="font-variation-settings:normal;opacity:0.1;vector-effect:none;fill:#fafafa;fill-opacity:1;stroke:none;stroke-width:1;stroke-linecap:round;stroke-linejoin:round;stroke-miterlimit:4;stroke-dasharray:none;stroke-dashoffset:0;stroke-opacity:1;-inkscape-stroke:none;marker:none"
     id="path73-0"
     cx="8.0817928"
     cy="7"
     r="1.4999999" />
</svg>

<?xml version="1.0" encoding="UTF-8"?>
<svg width="16" height="16" version="1.1" xml:space="preserve" xmlns="http://www.w3.org/2000/svg" xmlns:cc="http://creativecommons.org/ns#" xmlns:dc="http://purl.org/dc/elements/1.1/" xmlns:rdf="http://www.w3.org/1999/02/22-rdf-syntax-ns#" xmlns:xlink="http://www.w3.org/1999/xlink"><defs><linearGradient id="linearGradient3304" x1="24" x2="24" y1="7.2227" y2="40.912" gradientTransform="matrix(.2973 0 0 .2973 .86487 .86487)" gradientUnits="userSpaceOnUse"><stop stop-color="#fff" offset="0"/><stop stop-color="#fff" stop-opacity=".23529" offset=".063165"/><stop stop-color="#fff" stop-opacity=".15686" offset=".95056"/><stop stop-color="#fff" stop-opacity=".39216" offset="1"/></linearGradient><linearGradient id="linearGradient867" x1="7.905" x2="7.905" y1="1.5559" y2="14.46" gradientTransform="translate(-1.4305e-6)" gradientUnits="userSpaceOnUse"><stop stop-color="#efdfc4" offset="0"/><stop stop-color="#e7c591" offset="1"/></linearGradient><radialGradient id="radialGradient-9-0-5-6" cx="9.6924" cy="41.272" r="29.069" gradientTransform="matrix(1.2897 0 0 .77539 33.5 12.867)" gradientUnits="userSpaceOnUse"><stop offset="0"/><stop stop-opacity="0" offset="1"/></radialGradient><filter id="filter-10-6-6-8" x="-.2087" y="-.48" width="1.4174" height="1.96"><feGaussianBlur in="SourceGraphic" stdDeviation="2"/></filter><linearGradient id="linearGradient65" x1="-7.6893" x2="-7.6893" y1="2.0665" y2="14.458" gradientTransform="translate(14)" gradientUnits="userSpaceOnUse"><stop stop-color="#9bdb4d" offset="0"/><stop stop-color="#68b723" offset="1"/></linearGradient><linearGradient id="linearGradient69" x1="100.79" x2="100.79" y1="13.841" y2="33.724" gradientTransform="matrix(.33857 0 0 .33949 -26.126 -1.6204)" gradientUnits="userSpaceOnUse"><stop stop-color="#fff" offset="0"/><stop stop-color="#fff" stop-opacity=".23529" offset=".40658"/><stop stop-color="#fff" stop-opacity=".15686" offset=".72684"/><stop stop-color="#fff" stop-opacity=".39216" offset="1"/></linearGradient><linearGradient id="linearGradient68-7" x1="6.1625" x2="6.1625" y1="2.7618" y2="16.023" gradientTransform="matrix(.96882 0 0 .97366 .99762 -1.1826)" gradientUnits="userSpaceOnUse"><stop stop-color="#ed5353" offset="0"/><stop stop-color="#cf3137" offset=".53066"/><stop stop-color="#7a0000" offset="1"/></linearGradient><linearGradient id="linearGradient9" x1="8.0745" x2="8.0745" y1="9.7803" y2="16.114" gradientTransform="matrix(.96882 0 0 .97366 .99762 -1.1826)" gradientUnits="userSpaceOnUse"><stop stop-color="#a10705" stop-opacity=".5" offset="0"/><stop stop-color="#7a0000" offset="1"/></linearGradient><linearGradient id="linearGradient13" x1="26" x2="38" y1="26" y2="26" gradientTransform="matrix(.25 0 0 .25 -14 1.5818)" gradientUnits="userSpaceOnUse"><stop stop-color="#a10705" offset="0"/><stop stop-color="#7a0000" offset="1"/></linearGradient></defs><metadata><rdf:RDF><cc:Work rdf:about=""><dc:format>image/svg+xml</dc:format><dc:type rdf:resource="http://purl.org/dc/dcmitype/StillImage"/></cc:Work></rdf:RDF></metadata><rect x="1.5" y="1.5" width="13" height="13" rx="2" ry="2" color="#000000" fill="url(#linearGradient867)"/><g><path d="m6.3184 1.5c-0.03623 0.17882-0.022801 0.369 0.050781 0.55078l1.0898 2.7012-5.959 2.1426v2.0469l6.6797-2.4023 1.3008 3.2227 2.5977 1.293 2.4219-0.6543v-1.9922l-3.1465 0.84961-1.3594-3.3691 4.5059-1.6211v-0.76758c0-0.42729-0.13283-0.82221-0.35938-1.1465-0.015124 0.0045637-0.030009 0.0083576-0.044922 0.013672l-4.8242 1.7344-1.0488-2.6016h-1.9043z" fill="#d48e15" opacity=".3" stop-color="#000000" stroke-linecap="round" stroke-linejoin="round" style="-inkscape-stroke:none;font-variation-settings:normal"/><path d="m11.053 9.0508c-0.45439 0-7.0631 1.841-9.5527 2.5391v0.91016c0 1.108 0.892 2 2 2h9c0.26211 0 0.51125-0.04974 0.74023-0.14062-0.60759-1.8707-1.7794-5.3086-2.1875-5.3086z" fill="url(#linearGradient65)" stop-color="#000000" style="-inkscape-stroke:none;font-variation-settings:normal"/><path d="m9.3867 9.709-7.8867 2.127v0.66406c0 0.4602 0.15474 0.88346 0.41406 1.2207l3.7734-1.0195 0.56445 1.7988h2.0195l-0.72266-2.3008 2.5645-0.69141 1.207 2.9922h1.1797c0.29418 0 0.57315-0.062677 0.82422-0.17578l-1.3398-3.3223-2.5977-1.293z" fill="#3a9104" opacity=".3" stop-color="#000000" stroke-linecap="round" stroke-linejoin="round" style="-inkscape-stroke:none;font-variation-settings:normal"/></g><path d="m13.191 1.6211-11.691 4.2031v2.0469l12.979-4.666c-0.10716-0.73327-0.60947-1.3356-1.2852-1.584h-0.001953zm1.3086 5.666-13 3.5078v1.7051c0 0.095862 0.0066151 0.19101 0.019531 0.2832l4.8281-1.3027 0.94922 3.0195h2.0176l-1.1055-3.5215 6.291-1.6973v-1.9941z" fill="#fafafa" stop-color="#000000" stroke-linecap="round" stroke-linejoin="round"/><path d="m14.174 13.596c0.20624-0.31417 0.3261-0.69046 0.3261-1.0961v-9c0-1.108-0.892-2-2-2h-9c-1.108 0-2 0.892-2 2v8.0898" color="#000000" fill="none" opacity=".5" stop-color="#000000" stroke="#b6802e" stroke-linejoin="round" style="-inkscape-stroke:none;font-variation-settings:normal"/><path d="m1.5 11.59v0.91016c0 1.108 0.892 2 2 2h9" fill="none" stop-color="#000000" stroke="#3a9104" stroke-opacity=".5" style="-inkscape-stroke:none;font-variation-settings:normal"/><g stroke-linecap="round" stroke-linejoin="round"><path d="m7.2266 1.5 5.2461 13h0.027344c0.7061 0 1.3259-0.36255 1.6816-0.91211v-0.001953l-4.8789-12.086h-2.0762z" fill="#ffe16b" stop-color="#000000"/><path d="m12.5 14.5c0.7082 0 1.3282-0.36442 1.6834-0.91673" color="#000000" fill="none" stop-color="#000000" stroke="#d48e15" stroke-opacity=".5" style="-inkscape-stroke:none;font-variation-settings:normal"/><rect x="2.5" y="2.5" width="11" height="11" rx="1" ry="1" fill="none" opacity=".4" stroke="url(#linearGradient3304)"/></g><ellipse transform="matrix(.23636 0 0 .23636 -2.8727 .43636)" cx="46" cy="44.867" rx="11.5" ry="5" fill="url(#radialGradient-9-0-5-6)" filter="url(#filter-10-6-6-8)" opacity=".3" stroke-width="4.2308"/><path d="m7.9997 1.4913c-2.4802 1.214e-4 -4.4908 1.9415-4.4909 4.3363-2.5e-5 1.2171 0.52964 2.3781 1.4597 3.1996l2.2502 2.1731c0.43135 0.41656 1.1308 0.41659 1.5622 6.5e-5l2.2507-2.1732c0.93001-0.82151 1.4597-1.9826 1.4597-3.1996-1.25e-4 -2.395-2.011-4.3364-4.4915-4.3363z" fill="url(#linearGradient68-7)" stop-color="#000000" stroke="url(#linearGradient9)" stroke-linecap="round" stroke-linejoin="round" stroke-width=".99999" style="-inkscape-stroke:none;font-variation-settings:normal"/><path d="m7.8141 2.4791c-1.4069 0.052862-2.7071 1.0256-3.1218 2.3231-0.42454 1.2319-0.014683 2.6747 0.99572 3.5301 0.75784 0.72432 1.5012 1.4643 2.2681 2.1788 0.15941 0.033198 0.24539-0.18062 0.36474-0.25631 0.76883-0.74955 1.5533-1.4853 2.3133-2.2425 0.93718-1.0257 1.1078-2.6193 0.40552-3.8076-0.62358-1.1088-1.92-1.8057-3.2255-1.7255z" fill="none" opacity=".3" stop-color="#000000" stroke="url(#linearGradient69)" stroke-linecap="round" stroke-linejoin="round" style="-inkscape-stroke:none;font-variation-settings:normal"/><circle transform="rotate(-90)" cx="-6" cy="8.0818" r="1.5" fill="url(#linearGradient13)" style="-inkscape-stroke:none;font-variation-settings:normal"/><circle cx="8.0818" cy="7" r="1.5" fill="#fafafa" opacity=".1" style="-inkscape-stroke:none;font-variation-settings:normal"/></svg>
